www/assets/icons/code_off.svg

<svg width="24" height="24" viewBox="0 0 24 24" xmlns="http://www.w3.org/2000/svg" fill='currentColor'><path d="M19.475 11.29L14.895 6.69998L16.305 5.28998L22.305 11.29L18.715 14.88L17.305 13.46L19.475 11.29ZM1.69501 3.50998L5.88501 7.69998L2.30501 11.29L8.30501 17.29L9.71501 15.88L5.13501 11.29L7.30501 9.11998L20.085 21.9L21.495 20.49L3.11501 2.09998L1.69501 3.50998Z"/></svg>

<svg xmlns="http://www.w3.org/2000/svg" width="24" height="24" viewBox="0 0 24 24" fill='currentColor'><path d="m19.475 11.29-4.58-4.59 1.41-1.41 6 6-3.59 3.59-1.41-1.42zM1.695 3.51l4.19 4.19-3.58 3.59 6 6 1.41-1.41-4.58-4.59 2.17-2.17 12.78 12.78 1.41-1.41L3.115 2.1z"/></svg>
